src/assets/icons/checkbox.svg

<svg width="16" height="16" viewBox="0 0 16 16" fill="none" xmlns="http://www.w3.org/2000/svg">
<g clip-path="url(#clip0_8874_15309)">
<path fill-rule="evenodd" clip-rule="evenodd" d="M1.84475 0.020268C1.05649 0.108065 0.362585 0.68138 0.108533 1.45479C-0.00431 1.79827 0.00145136 1.44634 0.00145136 7.99903C0.00145136 13.0561 0.00548806 14.0198 0.0273777 14.1825C0.154863 15.1301 0.923625 15.8775 1.87615 15.9798C2.12396 16.0064 13.8773 16.0064 14.1252 15.9798C15.098 15.8753 15.8769 15.0964 15.9814 14.1235C16.0081 13.8757 16.0081 2.12234 15.9814 1.87452C15.8769 0.901653 15.098 0.122744 14.1252 0.0182497C13.9013 -0.00580515 2.0613 -0.00386021 1.84475 0.020268ZM2.03771 1.85267C1.93833 1.87616 1.85943 1.97496 1.84549 2.09344C1.83912 2.14751 1.83635 4.84365 1.83932 8.08485L1.84475 13.9779L1.88259 14.0286C1.9034 14.0565 1.94321 14.0963 1.97108 14.1171L2.02176 14.1549H8.00065H13.9795L14.0302 14.1171C14.0581 14.0963 14.0979 14.0565 14.1187 14.0286L14.1566 13.9779V7.99903V2.02014L14.1187 1.96946C14.0979 1.94159 14.0581 1.90177 14.0302 1.88096L13.9795 1.84313L8.0406 1.84036C4.77417 1.83882 2.07286 1.84436 2.03771 1.85267Z" fill="currentColor"/>
</g>
<defs>
<clipPath id="clip0_8874_15309">
<rect width="16" height="16" fill="white" transform="translate(0 -0.000732422)"/>
</clipPath>
</defs>
</svg>

<svg xmlns="http://www.w3.org/2000/svg" width="16" height="16" fill="none">
  <g clip-path="url(#a)">
    <path fill="currentColor" fill-rule="evenodd" d="M1.845.02C1.056.108.363.681.109 1.455-.004 1.798 0 1.446 0 7.999c0 5.057.004 6.02.026 6.183a2.098 2.098 0 0 0 1.85 1.798c.247.026 12 .026 12.248 0a2.1 2.1 0 0 0 1.856-1.857c.027-.247.027-12 0-12.248A2.1 2.1 0 0 0 14.125.018C13.901-.006 2.061-.004 1.845.02Zm.193 1.833c-.1.023-.179.122-.193.24-.006.055-.009 2.75-.006 5.992l.006 5.893.038.05c.02.028.06.068.088.09l.05.037H13.98l.05-.038a.522.522 0 0 0 .089-.088l.038-.051V2.02l-.038-.05a.523.523 0 0 0-.089-.089l-.05-.038-5.94-.003a610.21 610.21 0 0 0-6.002.013Z" clip-rule="evenodd"/>
  </g>
  <defs>
    <clipPath id="a">
      <path fill="#fff" d="M0 0h16v16H0z"/>
    </clipPath>
  </defs>
</svg>
